X: 16985
T: Head For The Hills
R: slide
M: 12/8
K: Dmajor
B|A2 F A2 d f2 e d2 B|Adf a2 f g2 f e2 d|
A2 F A2 d f2 e d2 B|Adf a2 f e2 f d2:|
f|a2 f d3 g2 a b2 a|f2 a afd g2 f e2 a|
faa afd g2 a b2 a|f2 a afd efe d2:|

